public_html/templates/default/images/comments/plus.svg

<svg viewBox="0 0 5 5" xmlns="http://www.w3.org/2000/svg"><path d="m1.6772599 0h1.6666668v1.6666666h1.6666665v1.6666668h-1.6666665v1.6666666h-1.6666668v-1.6666666h-1.66666666v-1.6666668h1.66666666z" stroke-width="1.666667"/></svg>

<?xml version="1.0" encoding="UTF-8" standalone="no"?>
<svg
   xmlns:dc="http://purl.org/dc/elements/1.1/"
   xmlns:cc="http://creativecommons.org/ns#"
   xmlns:rdf="http://www.w3.org/1999/02/22-rdf-syntax-ns#"
   xmlns:svg="http://www.w3.org/2000/svg"
   xmlns="http://www.w3.org/2000/svg"
   xmlns:sodipodi="http://sodipodi.sourceforge.net/DTD/sodipodi-0.dtd"
   xmlns:inkscape="http://www.inkscape.org/namespaces/inkscape"
   class="icon  icon--plus"
   viewBox="0 0 5 5"
   version="1.1"
   id="svg4"
   sodipodi:docname="plus.svg"
   inkscape:version="0.92.3 (2405546, 2018-03-11)"
   inkscape:export-filename="/mnt/storage/public_html/templates/default/images/comments/plus.png"
   inkscape:export-xdpi="303.38016"
   inkscape:export-ydpi="303.38016">
  <metadata
     id="metadata10">
    <rdf:RDF>
      <cc:Work
         rdf:about="">
        <dc:format>image/svg+xml</dc:format>
        <dc:type
           rdf:resource="http://purl.org/dc/dcmitype/StillImage" />
      </cc:Work>
    </rdf:RDF>
  </metadata>
  <defs
     id="defs8" />
  <sodipodi:namedview
     pagecolor="#ffffff"
     bordercolor="#666666"
     borderopacity="1"
     objecttolerance="10"
     gridtolerance="10"
     guidetolerance="10"
     inkscape:pageopacity="0"
     inkscape:pageshadow="2"
     inkscape:window-width="1920"
     inkscape:window-height="986"
     id="namedview6"
     showgrid="true"
     inkscape:zoom="94.4"
     inkscape:cx="1.0795087"
     inkscape:cy="3.660245"
     inkscape:window-x="0"
     inkscape:window-y="27"
     inkscape:window-maximized="1"
     inkscape:current-layer="svg4"
     showguides="true">
    <inkscape:grid
       type="xygrid"
       id="grid12" />
  </sodipodi:namedview>
  <path
     d="M 1.6772599,0 H 3.3439267 V 1.6666666 H 5.0105932 V 3.3333334 H 3.3439267 V 5 H 1.6772599 V 3.3333334 H 0.01059324 V 1.6666666 H 1.6772599 Z"
     id="path2"
     inkscape:connector-curvature="0"
     style="stroke-width:1.66666651" />
</svg>
